X:161
T:Midnight on the Water
C:Luke Thomasson
S:Bernie Waugh
R:Waltz
M:3/4
L:1/8
K:D
|:A, DE|{E}"D"F2F2FE|{E}"D7"F3E DE|"D"FA3AB|"D"AF D2 DE|!
"D"F2"G"d2(3BdB|"D"A3F DE|F2"A"AF EF|"D"D3:|!
|:A Bc|"D"d2d3e|"G"dc BA Bc|{c}"D"d3B AF|D4d2|!
"Em"e2e3f|(3efed2e2|{e}"F#m"f3a fe|dc BA Bc|!
"G"d2d3e|(3dedc2B2|"D"A3B AF|"Bm"D4 DE|!
"D"F2"G"d2{A}B2|"D"A3 F DE|F2{G}"A"AF EF|"D"D4|

